!!!COM: Haydn, Franz Joseph
!!!OTL: String Quartet in B-flat Major
!!!OPS: Opus 55
!!!ONM: No. 3
!!!OMD: Vivace assai
!!!OMV: 1
!!!SCT: H III:62
!!!SCA: Thematisch-bibliographisches Werkevererzeichnis (A. van Hoboken)
!!!YOR: Dover Edition; reprint of Eulenburg Edition
!!!ENC: Walter Hewlett
!!!CDT: 1732/3/31/-1809/5/31/
!!!CNT: Oesterreich
!!!YEC: Copyright (c) 1994, 2000 Center for Computer Assisted Research in the Humanities
!!!YEM: Rights to all derivative editions reserved.
!!!YEM: Refer to licensing agreement for further details.
!!!YEN: United States of America
**kern	**dynam	**kern	**dynam	**kern	**dynam	**kern	**dynam
*I:Violoncello	*I:Violoncello	*I:Viola	*I:Viola	*I:Violino II	*I:Violino II	*I:Violino I	*I:Violino I
*>[A,A,B]	*	*>[A,A,B]	*	*>[A,A,B]	*	*>[A,A,B]	*
*>A	*	*>A	*	*>A	*	*>A	*
*clefF4	*	*clefC3	*	*clefG2	*	*clefG2	*
*k[b-e-]	*	*k[b-e-]	*	*k[b-e-]	*	*k[b-e-]	*
*B-:	*	*B-:	*	*B-:	*	*B-:	*
*M3/4	*	*M3/4	*	*M3/4	*	*M3/4	*
! Vivace Assai	!	! Vivace Assai	!	! Vivace Assai	!	! Vivace Assai	!
(2BB-/	p	(2B-/	p	(2B-/	p	(2B-/	p
4AA/)	.	4A/)	.	4A/)	.	4A/)	.
=2	=2	=2	=2	=2	=2	=2	=2
(2E-\	.	(2e-\	.	(2e-/	.	(2e-/	.
4D\)	.	4d\)	.	4d/)	.	4d/)	.
=3	=3	=3	=3	=3	=3	=3	=3
(2G\	.	(2g\	.	(2g/	.	(2g/	.
4F\)	.	4f\)	.	4f/)	.	4f/)	.
=4	=4	=4	=4	=4	=4	=4	=4
4En\	.	4en\	.	4en/	.	4en/	.
4r	.	4r	.	4r	.	4r	.
4r	.	4r	.	4r	.	4r	.
=5	=5	=5	=5	=5	=5	=5	=5
!	!	!	!	!	!	! (16AP/LL	!
!	!	!	!	!	!	! 16fP/JJ	!
(2AA/	f	2.f\	f	(2cc\	f	&(2ee-p\)	f
4BB-/)	.	.	.	4b-\)	.	4dd\&)	.
=6	=6	=6	=6	=6	=6	=6	=6
(2E-\	.	(4g\	.	2.g/	.	(4ccT\	.
!	!	!	!	!	!	! 16bP/LL	!
!	!	!	!	!	!	! 16ccP/JJ	!
.	.	4e-\	.	.	.	4ddp\	.
4En\)	.	4c\)	.	.	.	4b-\)	.
=7	=7	=7	=7	=7	=7	=7	=7
[2.F\	.	4c\	.	(4f/	.	(4a/	.
.	.	4r	.	4g/	.	4b-\	.
.	.	4r	.	4g#/)	.	4bn\)	.
=8	=8	=8	=8	=8	=8	=8	=8
4F\]	>	2.r	.	4a/	.	4cc\	.
(4E-\	.	.	.	4r	.	4r	.
4C/)	]	.	.	4r	.	4r	.
=9	=9	=9	=9	=9	=9	=9	=9
(2BB-/	p	(2B-/	p	(2B-/	p	(2B-/	p
4AA/)	.	4A/)	.	4A/)	.	4A/)	.
=10	=10	=10	=10	=10	=10	=10	=10
(2E-\	.	(2e-\	.	(2e-/	.	(2e-/	.
4D\)	.	4d\)	.	4d/)	.	4d/)	.
=11	=11	=11	=11	=11	=11	=11	=11
(2G\	.	(2g\	.	(2g/	.	(2g/	.
4F\)	.	4f\)	.	4f/)	.	4f/)	.
=12	=12	=12	=12	=12	=12	=12	=12
4A-\	.	4a-\	.	4a-/	.	4a-/	.
4r	.	4r	.	4r	.	4r	.
4r	.	4r	.	4r	.	4r	.
=13	=13	=13	=13	=13	=13	=13	=13
(2D\	f	(2f\	f	(2bn\	f	(2bn\	f
4E-\)	.	8e-\L	.	4cc\)	.	4cc\)	.
.	.	8c\J)	.	.	.	.	.
=14	=14	=14	=14	=14	=14	=14	=14
(2BBn/	.	(4G/	.	(4f/	.	(4dd\	.
.	.	4g\)	.	4d/	.	4ff\	.
8C/L	.	(8g\L	.	8e-/L	.	8ee-\L	.
8E-/J)	.	8e-\J)	.	8g/J)	.	8cc\J)	.
=15	=15	=15	=15	=15	=15	=15	=15
2.F\	.	2d\	.	2f/	.	2b-\	.
.	.	(8e-\L	.	(16f/LL	.	(8cc\L	.
.	.	.	.	16e-/	.	.	.
.	.	8c\J)	.	16d/	.	8a\J)	.
.	.	.	.	16e-/JJ)	.	.	.
=16	=16	=16	=16	=16	=16	=16	=16
(4B-\	.	4B-/	.	4d/	.	(4.b-\	<
4G\	.	4r	.	4r	.	.	.
.	.	.	.	.	.	16cc\LL	.
.	.	.	.	.	.	16dd\JJ	.
4E-\)	.	4r	.	8r	.	16ee-\LL	.
.	.	.	.	.	.	16ff\	.
.	.	.	.	(16ee-\LL	.	16gg\	.
.	.	.	.	16ff\JJ)	.	16aa\JJ)	]
=17	=17	=17	=17	=17	=17	=17	=17
(4.BB-/	.	2.r	.	(4gg\	.	(4bb-\	.
.	.	.	.	4ff\	.	4aa\	.
16C/LL	.	.	.	.	.	.	.
16D/JJ	.	.	.	.	.	.	.
16E-\LL	.	.	.	4ee-\)	.	4gg\)	.
16F\	.	.	.	.	.	.	.
16G\	.	.	.	.	.	.	.
16An\JJ)	.	.	.	.	.	.	.
=18	=18	=18	=18	=18	=18	=18	=18
4B-\	.	(4.B-/	.	(4dd\	.	(4ff\	.
4r	.	.	.	4ff\	.	4aa-\	.
.	.	16c\LL	.	.	.	.	.
.	.	16d\JJ	.	.	.	.	.
4r	.	16e-\LL	.	4ee-\)	.	4gg\)	.
.	.	16f\	.	.	.	.	.
.	.	16g\	.	.	.	.	.
.	.	16a\JJ)	.	.	.	.	.
=19	=19	=19	=19	=19	=19	=19	=19
2.r	.	(4b-\	.	(4dd\	.	(4ff\	.
.	.	4f#\	.	4cc\	.	4ee-\	.
.	.	4g\)	.	4b-\)	.	4dd\)	.
=20	=20	=20	=20	=20	=20	=20	=20
2.r	.	(4e-\	p	4b-'\	p	4cc'\	p
.	.	4en\	.	4b-'\	.	4cc'\	.
.	.	4fn\)	.	4b-'\	.	4cc'\	.
=21	=21	=21	=21	=21	=21	=21	=21
2.r	.	(2g-z\	z	2.b-z\	z	[4ccz\	z
.	.	.	.	.	.	(8.cc\L]	.
.	.	.	.	.	.	16dd-\k	.
.	.	4f\)	.	.	.	8.cc\	.
.	.	.	.	.	.	16dd-\Jk)	.
=22	=22	=22	=22	=22	=22	=22	=22
2.r	.	(4e-\	.	4b-'\	.	4cc'\	.
.	.	4en\	.	4b-'\	.	4cc'\	.
.	.	4f\)	.	4b-'\	.	4cc'\	.
=23	=23	=23	=23	=23	=23	=23	=23
2.r	.	(2g-z\	z	2.b-z\	z	[4ccz\	z
.	.	.	.	.	.	(8.cc\L]	.
.	.	.	.	.	.	16dd-\k	.
.	.	4f\)	.	.	.	8.cc\	.
.	.	.	.	.	.	16dd-\Jk)	.
=24	=24	=24	=24	=24	=24	=24	=24
2.r	.	4en'\	<	(8.b-/L	<	4cc\	<
.	.	.	.	16gn/k)	.	.	.
.	.	4e'\	.	(8.b-/	.	4cc\	.
.	.	.	.	16g/k)	.	.	.
.	.	4e'\	]	(8.b-/	.	4cc\	]
.	.	.	.	16g/Jk)	]	.	.
=25	=25	=25	=25	=25	=25	=25	=25
2.r	.	4f'\	.	(8.a/L	f	(8.cc\L	f
.	.	.	.	16b-/k)	.	16dd-\k)	.
.	.	4f'\	.	(8.a/	.	(8.cc\	.
.	.	.	.	16b-/k)	.	16dd-\k)	.
.	.	4f'\	.	(8.a/	.	(8.cc\	.
.	.	.	.	16b-/Jk)	.	16dd-\Jk)	.
=26	=26	=26	=26	=26	=26	=26	=26
2.r	.	4f\	.	4a/	.	4cc\	.
.	.	4r	.	4r	.	4r	.
.	.	4r	.	4r	.	4r	.
=27	=27	=27	=27	=27	=27	=27	=27
4r	.	(2d\	p	2.r	.	(2b-\	p
(4En\	p	.	.	.	.	.	.
4F\)	.	4c\)	.	.	.	4a/)	.
=28	=28	=28	=28	=28	=28	=28	=28
4r	.	4r	.	(2cc\	p	(2ee-\	.
(4A\	.	(4f'\	.	.	.	.	.
4B-\)	.	4f'\)	.	4b-\)	.	4ddn\)	.
=29	=29	=29	=29	=29	=29	=29	=29
2.r	.	4r	.	4r	.	(2gg\	<
.	.	4b-'\	<	4dd'\	<	.	.
.	.	4a'\	]	4cc'\	]	4ff#\)	]
=30	=30	=30	=30	=30	=30	=30	=30
2.r	.	4f#'\	f	4aa'\	f	4ccc'\	f
.	.	4g'\	.	4gg'\	.	4bb-'\	.
.	.	4r	.	4r	.	4r	.
=31	=31	=31	=31	=31	=31	=31	=31
(2Fn\	p	(2A/	p	4r	.	4r	.
.	.	.	.	(4c'/	p	(4cc'\	p
4En\)	.	4G/)	.	4c'/)	.	4cc'\)	.
=32	=32	=32	=32	=32	=32	=32	=32
(2B-\	.	(4.en\	.	(2g/	.	(4.cc\	.
.	.	16fn\LL	.	.	.	16dd\LL	.
.	.	16g\JJ	.	.	.	16een\JJ	.
4A\)	.	4c\)	.	4f/)	.	4ff\)	.
=33	=33	=33	=33	=33	=33	=33	=33
(2d\	.	[2.d\	.	[2.f/	.	(8ff\L	.
.	.	.	.	.	.	8bb-\)	.
.	.	.	.	.	.	(8bb-\	.
.	.	.	.	.	.	8aa\)	.
4c\)	.	.	.	.	.	(8aa\	.
.	.	.	.	.	.	8gg\J)	.
=34	=34	=34	=34	=34	=34	=34	=34
4Bn\	.	4d\]	.	4f/]	.	4gg\	.
4B\	.	4d\	.	4f/	.	4gg\	.
4B\	.	4d\	.	4f/	.	4gg\	.
=35	=35	=35	=35	=35	=35	=35	=35
2.c\	.	[2.en\	.	2.en/	.	(8gg\L	.
.	.	.	.	.	.	8ccc\)	.
.	.	.	.	.	.	(8ccc\	.
.	.	.	.	.	.	8bb-\)	.
.	.	.	.	.	.	(8bb-\	.
.	.	.	.	.	.	8aa\J)	.
=36	=36	=36	=36	=36	=36	=36	=36
4c#\	.	4e\]	.	4g/	.	4aa\	.
4c#\	.	4en\	.	4g/	.	4aa\	.
4c#\	.	4e\	.	4g/	.	4aa\	.
=37	=37	=37	=37	=37	=37	=37	=37
4d\	.	(8f\L	.	(8f\L	.	(8aa\L	.
!	!	! cresc.	!	! cresc.	!	! cresc.	!
.	.	8ff\)	.	8aa\)	.	8ddd\)	.
4r	.	(8ff\	.	(8aa\	.	(8ddd\	.
.	.	8een\)	.	8gg\)	.	8ccc\)	.
4r	.	(8ee\	.	(8gg\	.	(8ccc\	.
.	.	8dd\J)	.	8ff\J)	.	8bb-\J)	.
=38	=38	=38	=38	=38	=38	=38	=38
2.r	.	(8dd\L	.	(8ff\L	.	(8bb-\L	.
.	.	8cc\)	.	8een\)	.	8aa\)	.
.	.	(8cc\	.	(8ee\	.	(8aa\	.
.	.	8b-\)	.	8dd\)	.	8gg\)	.
.	.	(8b-\	.	(8dd\	.	(8gg\	.
.	.	8a\J)	.	8cc\J)	.	8ff\J)	.
=39	=39	=39	=39	=39	=39	=39	=39
2.r	.	(8a\L	.	(8cc/L	.	(8ff\L	.
.	.	8g\)	.	8b-/)	.	8een\)	.
.	.	(8g\	.	(8b-/	.	(8ee\	.
.	.	8f\)	.	8a/)	.	8dd\)	.
.	.	(8f\	.	(8a/	.	(8dd\	.
.	.	8en\J)	.	8g/J)	.	8cc\J)	.
=40	=40	=40	=40	=40	=40	=40	=40
8r	.	(8en\L	f	(8g/L	f	(8cc\L	f
8A-'\L	f	8d\J)	.	8f/J)	>	8bn\J)	.
(8A-\	>	2d\	>	2f/	.	2b\	>
8G\)	.	.	.	.	.	.	.
(8G\	.	.	.	.	.	.	.
8F\J)	.	.	.	.	.	.	.
=41	=41	=41	=41	=41	=41	=41	=41
(8F\L	.	(2d-\	.	(2g/	.	2.b-\	]
8En\)	.	.	.	.	.	.	.
(8F\	.	.	.	.	.	.	.
8E\)	.	.	.	.	.	.	.
(8G\	.	4c\)	]	4en/)	]	.	.
8C\J)	]	.	.	.	.	.	.
=42	=42	=42	=42	=42	=42	=42	=42
4F\	p	(4c\	p	(4f/	p	(8b-/L	p
.	.	.	.	.	.	8a/)	.
(4BB-/	.	4dn\	.	4d/)	.	(8a/	.
.	.	.	.	.	.	8g/)	.
4BBn/)	.	4F/)	.	4d/	.	(8dd/	.
.	.	.	.	.	.	8g/J)	.
=43	=43	=43	=43	=43	=43	=43	=43
2.C/	.	(2F/	.	(2A/	.	2f/)	.
.	.	4En/)	.	4B-/)	.	&(8.g/L)	.
.	.	.	.	.	.	16f/Jk&)	.
=44	=44	=44	=44	=44	=44	=44	=44
4D\	.	(4F/	.	(4A/	.	(4f/	.
4D\	.	4d\)	.	4f/)	.	4b-\)	.
4D\	.	4d\	.	4f'/	.	4b-'\	.
=45	=45	=45	=45	=45	=45	=45	=45
!	!	!	!	!	!	! (16aP/LL	!
!	!	!	!	!	!	! 16ccP/JJ	!
4En\	.	4c\	.	4g/	.	4b-p\)	.
4r	.	4r	.	(4c'/	pp	(4B-'/	pp
4r	.	4r	.	4c'/)	.	4B-'/)	.
=46	=46	=46	=46	=46	=46	=46	=46
4r	.	2.r	.	(4c'/	.	(4B-'/	.
(4C/	pp	.	.	4c'/	.	4B-'/	.
! dolce	!	!	!	!	!	!	!
4D\)	.	.	.	4c'/)	.	4B-'/)	.
=47	=47	=47	=47	=47	=47	=47	=47
4E-'\	.	2.r	.	(4c'/	.	(4B-'/	.
2Enz\	z	.	.	4c'/	.	4B-'/	.
.	.	.	.	4c'/)	.	4B-'/)	.
=48	=48	=48	=48	=48	=48	=48	=48
4F'\	.	2.r	.	4c/	.	4B-/	.
2F#z\	z	.	.	4c/	.	4B-/	.
.	.	.	.	4c/	.	4B-/	.
=49	=49	=49	=49	=49	=49	=49	=49
(8G\L	.	2.r	.	4c/	.	4B-/	.
8A\	.	.	.	.	.	.	.
8B-\)	.	.	.	4c/	.	4B-/	.
8A'\	.	.	.	.	.	.	.
8G'\	.	.	.	4c/	.	4B-/	.
8Fn'\J	.	.	.	.	.	.	.
=50	=50	=50	=50	=50	=50	=50	=50
(8En\L	.	2.r	.	4c/	.	4B-/	.
8F\	.	.	.	.	.	.	.
8G\)	.	.	.	4c/	.	4B-/	.
8F'\	.	.	.	.	.	.	.
8E'\	.	.	.	4c/	.	4B-/	.
8D'\J	.	.	.	.	.	.	.
=51	=51	=51	=51	=51	=51	=51	=51
4C/	.	4r	.	4c/	.	4B-/	.
!	!	!	!	!	!	! dolce	!
4r	.	(4b-'\	pp	(4cc'\	.	(4cc\	.
4r	.	4b-'\)	.	4cc'\)	.	4dd\)	.
=52	=52	=52	=52	=52	=52	=52	=52
2.r	.	(4b-'\	.	(4cc'\	.	4ee-'\	.
.	.	4b-'\	.	4cc'\	.	2eenz\	z
.	.	4b-'\)	.	4cc'\)	.	.	.
=53	=53	=53	=53	=53	=53	=53	=53
2.r	.	4b-\	.	4cc\	.	4ff'\	.
.	.	4b-\	.	4cc\	.	2ff#z\	z
.	.	4b-\	.	4cc\	.	.	.
=54	=54	=54	=54	=54	=54	=54	=54
2.r	.	4b-\	<	4cc\	<	(8gg\L	<
.	.	.	.	.	.	8aa\	.
.	.	4b-\	.	4cc\	.	8bb-\)	.
.	.	.	.	.	.	8aa'\	.
.	.	4b-\	.	4cc\	.	8gg'\	.
.	.	.	.	.	.	8ffn'\J	.
=55	=55	=55	=55	=55	=55	=55	=55
2.r	.	4b-\	.	4cc\	.	(8een\L	.
.	.	.	.	.	.	8ff\	.
.	.	4b-\	.	4cc\	.	8gg\)	.
.	.	.	.	.	.	8cc'\	.
.	.	4b-\	]	4cc\	]	8dd'\	.
.	.	.	.	.	.	8ee'\J	]
=56	=56	=56	=56	=56	=56	=56	=56
8A\L	f	4a\	f	8cc/L	f	4ff\	f
8G\	.	.	.	8b-/	.	.	.
8F\	.	(4.a\	.	8a/	.	(4.ff\	.
8En\	.	.	.	8g/	.	.	.
8D\	.	.	.	8f/	.	.	.
8C\J	.	16b-\LL	.	8en/J	.	16gg\LL	.
.	.	16cc\JJ)	.	.	.	16aa\JJ)	.
=57	=57	=57	=57	=57	=57	=57	=57
8BB-/L	.	8dd\L	.	4d/	.	4bb-\	.
8AA/	.	8cc\	.	.	.	.	.
8GG/	.	8b-\	.	4bb-\	.	4ddd\	.
8FF/	.	8a\	.	.	.	.	.
8EEn/	.	8g\	.	4bb-\	.	4ddd\	.
8DD/J	.	8f\J	.	.	.	.	.
=58	=58	=58	=58	=58	=58	=58	=58
(8CC/L	.	2.en\	.	2bb-\	.	2ddd\	.
8EEn/)	.	.	.	.	.	.	.
8GG'/	.	.	.	.	.	.	.
8C'/	.	.	.	.	.	.	.
8En'/	.	.	.	(8aa\L	.	(8ccc\L	.
8C'/J	.	.	.	8gg\J)	.	8bb-\J)	.
=59	=59	=59	=59	=59	=59	=59	=59
(8FF/L	.	4f\	.	2ff\)	.	2aa\)	.
8AA/)	.	.	.	.	.	.	.
8C'/	.	4r	.	.	.	.	.
8F'/	.	.	.	.	.	.	.
8A'/	.	4r	.	4r	.	&(16ff\LL)	.
.	.	.	.	.	.	16een\	.
8F'/J	.	.	.	.	.	16ff\	.
.	.	.	.	.	.	16gg\JJ&)	.
=60	=60	=60	=60	=60	=60	=60	=60
[2.BBnz/	z	[2.dz\	z	[2.fnz/ [2.A-/	z	(8aa-z\L	z
.	.	.	.	.	.	8een\)	.
.	.	.	.	.	.	8ff'\	.
.	.	.	.	.	.	8aa-'\	.
.	.	.	.	.	.	8bbn'\	.
.	.	.	.	.	.	8ddd'\J	.
=61	=61	=61	=61	=61	=61	=61	=61
2.BB/_	.	2.d\_	.	2.f/_ 2.A-/_	.	8fff'\L	.
.	.	.	.	.	.	8ddd'\	.
.	.	.	.	.	.	8bbn'\	.
.	.	.	.	.	.	8aa-'\	.
.	.	.	.	.	.	8ff'\	.
.	.	.	.	.	.	8dd'\J	.
=62	=62	=62	=62	=62	=62	=62	=62
4BB/]	.	4d\]	.	4f/] 4A-/]	.	8bn'/L	.
.	.	.	.	.	.	8a-'/	.
4BBn/	.	4d\	.	4f/ 4A-/	.	8f'/	.
.	.	.	.	.	.	8d'/	.
4BB/	.	4d\	.	4f/ 4A-/	.	8Bn'/	.
.	.	.	.	.	.	8A-'/J	.
=63	=63	=63	=63	=63	=63	=63	=63
2.BB-/	p	2.c\	p	2.e/ 2.Gn/	p	(4.G/	p
.	.	.	.	.	.	16An/LL	.
.	.	.	.	.	.	16B-/JJ	.
.	.	.	.	.	.	16c/LL	.
.	.	.	.	.	.	32d/L	.
.	.	.	.	.	.	32en/	.
.	.	.	.	.	.	32f/	.
.	.	.	.	.	.	32g/	.
.	.	.	.	.	.	32a/	.
.	.	.	.	.	.	32b-/JJJ)	.
=64	=64	=64	=64	=64	=64	=64	=64
2.AA/	.	2.f\	.	2.c/	.	(4cc\	.
.	.	.	.	.	.	4a/	.
.	.	.	.	.	.	4f/)	.
=65	=65	=65	=65	=65	=65	=65	=65
2.BB-/	.	2.g\	.	2.d/	.	(4d/	.
.	.	.	.	.	.	4b-\	.
.	.	.	.	.	.	4g/)	.
=66	=66	=66	=66	=66	=66	=66	=66
2.C/	.	2.G/ 2.En/	.	2.B-/	.	(4c/	.
.	.	.	.	.	.	4d/	.
.	.	.	.	.	.	4en/)	.
=67	=67	=67	=67	=67	=67	=67	=67
4r	.	(2En/	.	(2B-/	.	(2g/	.
4FF/	.	.	.	.	.	.	.
4FF/	.	4F/)	.	4An/)	.	4f/)	.
=68	=68	=68	=68	=68	=68	=68	=68
4r	.	(2G/	.	(2en/	.	(2b-\	.
4FF/	.	.	.	.	.	.	.
4FF/	.	4F/)	.	4f/)	.	4a/)	.
=69	=69	=69	=69	=69	=69	=69	=69
4r	.	(2en\	.	(2b-\	.	(2dd\	.
4FF/	.	.	.	.	.	.	.
4FF/	.	4f\)	.	4a/)	.	4cc\)	.
=70	=70	=70	=70	=70	=70	=70	=70
2.CCz/	z	2.gz\	z	(2enz/	z	(2bb-z\	z
.	.	.	.	4b-\)	.	16aa\LL	.
.	.	.	.	.	.	16gg\	.
.	.	.	.	.	.	16ff\	.
.	.	.	.	.	.	16een\JJ)	.
=71	=71	=71	=71	=71	=71	=71	=71
4FF/	.	4f\	.	4a/	.	4ff\	.
4r	.	4r	.	4r	.	4r	.
4r	.	4r	.	4r	.	(8c/L	p
.	.	.	.	.	.	8f/J)	.
=72	=72	=72	=72	=72	=72	=72	=72
2.C/	p	(2.G/	p	(2.B-/	p	(8en/L	.
.	.	.	.	.	.	8g/	.
.	.	.	.	.	.	8b-/)	.
.	.	.	.	.	.	8dd'/	.
.	.	.	.	.	.	8cc'/	.
.	.	.	.	.	.	8e'/J	.
=73	=73	=73	=73	=73	=73	=73	=73
4F\	.	4A/)	.	4A/)	.	4f/	.
4r	.	4r	.	4r	.	4r	.
4r	.	4r	.	4r	.	(8cc\L	.
.	.	.	.	.	.	8ff\J)	.
=74	=74	=74	=74	=74	=74	=74	=74
2.c\	.	(2.g\	.	(2.b-\	.	(8een\L	.
.	.	.	.	.	.	8gg\	.
.	.	.	.	.	.	8bb-\)	.
.	.	.	.	.	.	8ddd'\	.
.	.	.	.	.	.	8ccc'\	.
.	.	.	.	.	.	8ee'\J	.
=75	=75	=75	=75	=75	=75	=75	=75
4F\	.	4a\)	.	4a/)	.	4ff\	.
4r	.	4r	.	4r	.	4r	.
4r	.	4r	.	4r	.	4r	.
=76:!!:	=76:!!:	=76:!!:	=76:!!:	=76:!!:	=76:!!:	=76:!!:	=76:!!:
*>B	*	*>B	*	*>B	*	*>B	*
(2F#\	p	(2f#\	.	(2f#/	.	(2f#/	p
4G\)	.	4g\)	.	4g/)	.	4g/)	.
=77	=77	=77	=77	=77	=77	=77	=77
(2D\	.	(2d\	.	(2d/	.	(2d/	.
4E-\)	.	4e-\)	.	4e-/)	.	4e-/)	.
=78	=78	=78	=78	=78	=78	=78	=78
(2BBn/	.	(2Bn/	.	(2Bn/	.	(2Bn/	.
4C/)	.	4c\)	.	4c/)	.	4c/)	.
=79	=79	=79	=79	=79	=79	=79	=79
[2.GG/	f	8G\L	f	8G/L	f	4G/	f
.	.	8fn\	.	8a-/	.	.	.
.	.	8e-\	.	8g/	.	2aa-\ 2bn\ 2dn\	.
.	.	8d\	.	8fn/	.	.	.
.	.	8c\	.	8e-/	.	.	.
.	.	8Bn\J	.	8d/J	.	.	.
=80	=80	=80	=80	=80	=80	=80	=80
2.GG/_	.	8c\L	.	8e-/L	.	(4gg\	.
.	.	8e-\	.	8g/	.	.	.
.	.	8f\	.	8a-/	.	4bbn\	.
.	.	8e-\	.	8g/	.	.	.
.	.	8d\	.	8f/	.	4ccc\)	.
.	.	8c\J	.	8e-/J	.	.	.
=81	=81	=81	=81	=81	=81	=81	=81
2.GG/_	.	8Bn\L	.	8d/L	.	(4ddd\	.
.	.	8c\	.	8e-/	.	.	.
.	.	8d\	.	8f/	.	4ff\)	.
.	.	8d\	.	8bn/J	.	.	.
.	.	8c\	.	(16dd\LL	.	(16ff\LL	.
.	.	.	.	16cc\	.	16ee-\	.
.	.	8e-\J	.	16b\	.	16dd\	.
.	.	.	.	16cc\JJ)	.	16ee-\JJ)	.
=82	=82	=82	=82	=82	=82	=82	=82
4GG/]	.	4g\	.	4bn\	.	4dd\	.
4GG/	.	4G/	.	(8.b\L	.	(8.dd\L	.
.	.	.	.	16cc\k	.	16ee-\k	.
4GG/	.	4G/	.	8.b\	.	8.dd\	.
.	.	.	.	16cc\Jk)	.	16ee-\Jk)	.
=83	=83	=83	=83	=83	=83	=83	=83
4GG/	.	4G/	.	4bn\	.	4dd\	.
4r	.	4r	.	4r	.	4r	.
4r	.	4r	.	4r	.	4r	.
=84	=84	=84	=84	=84	=84	=84	=84
(2AA-/	p	(2A-/	p	(2A-/	p	(2A-/	p
4GG/)	.	4G/)	.	4G/)	.	4G/)	.
=85	=85	=85	=85	=85	=85	=85	=85
(2D-\	.	(2d-\	.	(2d-/	.	(2d-/	.
4C/)	.	4c\)	.	4c/)	.	4c/)	.
=86	=86	=86	=86	=86	=86	=86	=86
(2F\	.	(2f\	.	(2f/	.	(2f/	.
4E-\)	.	4e-\)	.	4e-/)	.	4e-/)	.
=87	=87	=87	=87	=87	=87	=87	=87
4Dn\	.	4dn\	.	4dn/	.	4dn/	.
4r	.	4r	.	4r	.	4r	.
4r	.	4r	.	4r	.	4r	.
=88	=88	=88	=88	=88	=88	=88	=88
!	!	!	!	!	!	! (16e-P/L 16GP/	!
!	!	!	!	!	!	! 16b-P/JJ	!
(2GG/	f	2.e-\	f	(2b-\	f	&(2dd-p\)	f
4AA-/)	.	.	.	4a-/)	.	4cc\&)	.
=89	=89	=89	=89	=89	=89	=89	=89
(2D-\	.	(4f\	.	2.f/	.	(4b-\	.
.	.	4d-\	.	.	.	4cc\	.
4Dn\)	.	4B-/)	.	.	.	4a-/)	.
=90	=90	=90	=90	=90	=90	=90	=90
[2.E-\	.	4B-/	.	(4e-/	.	(4g/	.
.	.	4r	.	4f/	.	4a-/	.
.	.	4r	.	4f#/)	.	4an/)	.
=91	=91	=91	=91	=91	=91	=91	=91
4E-\]	>	2.r	.	4g/	.	4b-\	.
(4D-\	.	.	.	4r	.	4r	.
4BB-/)	]	.	.	4r	.	4r	.
=92	=92	=92	=92	=92	=92	=92	=92
(2AA-/	p	(2c\	p	2.r	.	4r	.
.	.	.	.	.	.	(4e-'/	p
4GG/)	.	4B-/)	.	.	.	4e-'/)	.
=93	=93	=93	=93	=93	=93	=93	=93
(2D-\	.	(4.G/	.	(2B-/	p	(4.e-/	.
.	.	16A-/LL	.	.	.	16f/LL	.
.	.	16B-/JJ	.	.	.	16g/JJ	.
4C/)	.	4E-/)	.	4A-/)	.	4a-/)	.
=94	=94	=94	=94	=94	=94	=94	=94
(2F\	.	2.F/	.	4A-/	.	(8a-\L	.
.	.	.	.	.	.	8dd-\)	.
.	.	.	.	4a-/	.	(8dd-\	.
.	.	.	.	.	.	8cc\)	.
4E-\)	.	.	.	4a-/	.	(8cc\	.
.	.	.	.	.	.	8b-\J)	.
=95	=95	=95	=95	=95	=95	=95	=95
4Dn\	.	4f\	.	4a-/	.	4b-\	.
4D\	.	4f\	.	4a-/	.	4b-\	.
4D\	.	4f\	.	4a-/	.	4b-\	.
=96	=96	=96	=96	=96	=96	=96	=96
2.E-\	<	2.e-\	<	2.g/	<	(8b-\L	<
.	.	.	.	.	.	8ee-\)	.
.	.	.	.	.	.	(8ee-\	.
.	.	.	.	.	.	8dd-\)	.
.	.	.	.	.	.	(8dd-\	.
.	.	.	.	.	.	8cc\J)	.
=97	=97	=97	=97	=97	=97	=97	=97
4En\	.	4g\	.	4b-\	.	4cc\	.
4E\	.	4g\	.	4b-\	.	4cc\	.
4E\	]	4g\	]	4b-\	]	4cc\	]
=98	=98	=98	=98	=98	=98	=98	=98
2.F\	f>	2.f\	f>	2.a-/	f>	(8cc\L	f
.	.	.	.	.	.	8aa-\)	>
.	.	.	.	.	.	(8aa-\	.
.	.	.	.	.	.	8gg\)	.
.	.	.	.	.	.	(8gg\	.
.	.	.	.	.	.	8ff\J)	.
=99	=99	=99	=99	=99	=99	=99	=99
2.F#\	]	2.f#\	]	2.an/	]	(8ff\L	.
.	.	.	.	.	.	8ee-\J)	.
.	.	.	.	.	.	(8ee-\L	.
.	.	.	.	.	.	8ddn\J)	.
.	.	.	.	.	.	(8dd\L	]
.	.	.	.	.	.	8cc\J)	.
=100	=100	=100	=100	=100	=100	=100	=100
4G\	.	4g\	.	4d/	.	4bn\	.
4r	.	4r	.	4r	.	(4g'/	pp
4r	.	4r	.	4r	.	4g'/)	.
=101	=101	=101	=101	=101	=101	=101	=101
4r	.	2.r	.	(4fn'/	pp	(4g'/	.
! dolce	!	!	!	!	!	!	!
(4GG/	pp	.	.	4f'/	.	4g'/	.
4AAn/)	.	.	.	4f'/)	.	4g'/)	.
=102	=102	=102	=102	=102	=102	=102	=102
4BB-'/	.	2.r	.	(4f'/	.	(4g'/	.
2BBnz/	z	.	.	4f'/	.	4g'/	.
.	.	.	.	4f'/)	.	4g'/)	.
=103	=103	=103	=103	=103	=103	=103	=103
4C'/	.	2.r	.	(4f'/	.	(4g'/	.
2C#z/	z	.	.	4f'/	.	4g'/	.
.	.	.	.	4f'/)	.	4g'/)	.
=104	=104	=104	=104	=104	=104	=104	=104
(8D\L	.	2.r	.	(4f'/	.	(4g'/	.
8E-\	.	.	.	.	.	.	.
8Fn\)	.	.	.	4f'/	.	4g'/	.
8E-'\	.	.	.	.	.	.	.
8D'\	.	.	.	4f'/)	.	4g'/)	.
8Cn'\J	.	.	.	.	.	.	.
=105	=105	=105	=105	=105	=105	=105	=105
(8BBn/L	.	2.r	.	(4f'/	.	(4g'/	.
8C/	.	.	.	.	.	.	.
8D/)	.	.	.	4f'/	.	4g'/	.
8C'/	.	.	.	.	.	.	.
8BB'/	.	.	.	4f'/)	.	4g'/)	.
8AA'/J	.	.	.	.	.	.	.
=106	=106	=106	=106	=106	=106	=106	=106
4GG/	.	4r	.	(4f'/	.	4g'/	.
!	!	!	!	!	!	! dolce	!
4r	.	(4fn'\	pp	4g'/	.	(4g/	.
4r	.	4f'\)	.	4g'/)	.	4an/)	.
=107	=107	=107	=107	=107	=107	=107	=107
2.r	.	(4f'\	.	(4g'/	.	4b-'\	.
.	.	4f'\	.	4g'/	.	2bnz\	z
.	.	4f'\)	.	4g'/)	.	.	.
=108	=108	=108	=108	=108	=108	=108	=108
2.r	.	(4f'\	.	(4g'/	.	4cc'\	.
.	.	4f'\	.	4g'/	.	2cc#z\	z
.	.	4f'\)	.	4g'/)	.	.	.
=109	=109	=109	=109	=109	=109	=109	=109
2.r	.	4f\	.	4g/	.	(8dd\L	.
.	.	.	.	.	.	8ee-\	.
.	.	4f\	.	4g/	.	8ff\)	.
.	.	.	.	.	.	8ee-'\	.
.	.	4f\	.	4g/	.	8dd'\	.
.	.	.	.	.	.	8ccn'\J	.
=110	=110	=110	=110	=110	=110	=110	=110
2.r	.	4f\	.	4g/	.	(8bn\L	.
.	.	.	.	.	.	8aa-\	.
.	.	4f\	.	4g/	.	8gg\)	.
.	.	.	.	.	.	8ff'\	.
.	.	4f\	.	4g/	.	8ee-'\	.
.	.	.	.	.	.	8dd'\J	.
=111	=111	=111	=111	=111	=111	=111	=111
2.r	.	4e-\	.	4g/	.	(8cc\L	.
.	.	.	.	.	.	8ee-\	.
.	.	4e-\	.	4g/	.	8gg\)	.
.	.	.	.	.	.	8ff'\	.
.	.	4e-\	.	4g/	.	8ee-'\	.
.	.	.	.	.	.	8dd'\J	.
=112	=112	=112	=112	=112	=112	=112	=112
2.r	.	4e-\	.	4g/	.	(8cc\L	.
.	.	.	.	.	.	8gg\	.
.	.	4e-\	.	4g/	.	8ccc\)	.
.	.	.	.	.	.	8bb-'\	.
.	.	4e-\	.	4g/	.	8aan'\	.
.	.	.	.	.	.	8gg'\J	.
=113	=113	=113	=113	=113	=113	=113	=113
2.r	.	4d\	.	4an/	.	(8ff#\L	.
.	.	.	.	.	.	8gg\	.
.	.	4d\	.	4a/	.	8aa\	.
.	.	.	.	.	.	8gg\	.
.	.	4d\	.	4a/	.	8ff#\	.
.	.	.	.	.	.	8ee-\J)	.
=114	=114	=114	=114	=114	=114	=114	=114
2.r	.	4f#\	.	4a/	.	(8dd\L	.
.	.	.	.	.	.	8ee-\	.
.	.	4f#\	.	4a/	.	8dd\)	.
.	.	.	.	.	.	8cc'\	.
.	.	4f#\	.	4a/	.	8b-'\	.
.	.	.	.	.	.	8a'\J	.
=115	=115	=115	=115	=115	=115	=115	=115
2.r	.	(8g\L	.	(8b-\L	.	(8b-\L	.
.	.	8b-\)	.	8dd\)	.	8gg\)	.
.	.	(8b-\	.	(8dd\	.	(8gg\	.
.	.	8a\)	.	8cc\)	.	8ff#\)	.
.	.	(8a\	.	(8cc\	.	(8ff#\	.
.	.	8cc\J)	.	8ee-\J)	.	8aa\J)	.
=116	=116	=116	=116	=116	=116	=116	=116
2.r	.	(8cc\L	.	(8ee-\L	.	(8aa\L	.
.	.	8b-\)	.	8dd\)	.	8gg\)	.
.	.	(8b-\	.	(8dd\	.	(8gg\	.
.	.	8a-\)	.	8cc\)	.	8ffn\)	.
.	.	(8a-\	.	(8cc\	.	(8ff\	.
.	.	8g\J)	.	8b-\J)	.	8ee-\J)	.
=117	=117	=117	=117	=117	=117	=117	=117
2.r	.	(8g\L	<	(8b-/L	<	(8ee-\L	<
.	.	8f#\)	.	8a/)	.	8dd\)	.
.	.	(8f#\	.	(8a/	.	(8dd\	.
.	.	8g\)	.	8b-/)	.	8ee-\)	.
.	.	(8g\	.	(8b-/	.	(8ee-\	.
.	.	8fn\J)	]	8a-/J)	]	8dd\J)	]
=118	=118	=118	=118	=118	=118	=118	=118
2.r	.	(8f\L	.	(8a-/L	.	(8dd\L	.
.	.	8e-\)	.	8g/)	.	8cc\)	.
.	.	(8e-\	>	(8g/	>	(8cc\	>
.	.	8d\)	.	8f/)	.	8bn\)	.
.	.	(8d\	.	(8f/	.	(8b\	.
.	.	8e-\J)	.	8g/J)	.	8cc\J)	.
=119	=119	=119	=119	=119	=119	=119	=119
2.r	.	(8e-\L	.	(8g/L	.	(8cc/L	.
.	.	8d\)	.	8f/)	.	8b-/)	.
.	.	(8d\	.	(8f/	.	(8b-/	.
.	.	8c\)	.	8e-/)	.	8a/)	.
.	.	(8c\	.	(8e-/	.	(8a/	.
.	.	8B-\J)	]	8d/J)	]	8g/J)	]
=120	=120	=120	=120	=120	=120	=120	=120
8r	.	[2.B-/	<]	(8d/L	<	[2.g/	<]
8C#'/L	p	.	.	8c#/)	.	.	.
(8C#/	<	.	.	(8c#/	.	.	.
8D/)	.	.	.	8d/)	.	.	.
(8D/	.	.	.	(8d/	.	.	.
8E-/J)	]	.	.	8e-/J)	]	.	.
=121	=121	=121	=121	=121	=121	=121	=121
(8E-\L	>	2.B-/_	>]	(8e-/L	>	2.g/_	>]
8G\)	.	.	.	8g/)	.	.	.
(8E-\	.	.	.	(8e-/	.	.	.
8D\)	.	.	.	8d/)	.	.	.
(8D\	.	.	.	(8d/	.	.	.
8C#\J)	]	.	.	8c#/J)	]	.	.
=122	=122	=122	=122	=122	=122	=122	=122
2.D\	p	2B-/]	p	(4d/	p	2g/]	p
.	.	.	.	4g/)	.	.	.
.	.	(8d\L	.	4f#/	.	(8b-/L	.
.	.	8c\J)	.	.	.	8a/J)	.
=123	=123	=123	=123	=123	=123	=123	=123
[2.GG/	f	[2.d\	f	[2.fn/	f	(8cc\L	f
.	.	.	.	.	.	8bn\	.
.	.	.	.	.	.	8dd\)	.
.	.	.	.	.	.	8ff'\	.
.	.	.	.	.	.	8aa-'\	.
.	.	.	.	.	.	8bbn'\J	.
=124	=124	=124	=124	=124	=124	=124	=124
2.GG/_	.	2.d\]	.	2.f/]	.	8ddd'\L	.
.	.	.	.	.	.	8bbn'\	.
.	.	.	.	.	.	8aa-'\	.
.	.	.	.	.	.	8ff'\	.
.	.	.	.	.	.	8dd'\	.
.	.	.	.	.	.	8bn'\J	.
=125	=125	=125	=125	=125	=125	=125	=125
2.GGz/_	z	[2.cz\	z	[2.e-z/	z	(8ddz\L	z
.	.	.	.	.	.	8cc\	.
.	.	.	.	.	.	8ee-\)	.
.	.	.	.	.	.	8gg'\	.
.	.	.	.	.	.	8ccc'\	.
.	.	.	.	.	.	8eee-'\J	.
=126	=126	=126	=126	=126	=126	=126	=126
2.GG/]	.	2.c\]	.	2.e-/_	.	8ggg'\L	.
.	.	.	.	.	.	8eee-'\	.
.	.	.	.	.	.	8ccc'\	.
.	.	.	.	.	.	8gg'\	.
.	.	.	.	.	.	8ee-'\	.
.	.	.	.	.	.	8cc'\J	.
=127	=127	=127	=127	=127	=127	=127	=127
[2.FFz/	z	[2.cz\	z	2.e-z/_	z	(8b-z\L	z
.	.	.	.	.	.	8an\	.
.	.	.	.	.	.	8eee-\)	.
.	.	.	.	.	.	8ccc'\	.
.	.	.	.	.	.	8aa'\	.
.	.	.	.	.	.	8ff'\J	.
=128	=128	=128	=128	=128	=128	=128	=128
2.FF/]	>]	2.c\]	>]	2.e-/]	>]	8ee-'/L	>
.	.	.	.	.	.	8cc'/	.
.	.	.	.	.	.	8a'/	.
.	.	.	.	.	.	8f'/	.
.	.	.	.	.	.	8e-'/	.
.	.	.	.	.	.	8c'/J	]
=129	=129	=129	=129	=129	=129	=129	=129
4r	.	4r	.	4r	.	(2B-/	p
(4EEn/	p	(4D-/	p	(4G/	p	.	.
4FF/)	.	4C/)	.	4A/)	.	4A/)	.
=130	=130	=130	=130	=130	=130	=130	=130
4r	.	4r	.	4r	.	(2e-/	.
(4AA/	.	(4G-/	.	(4c/	.	.	.
4BB-/)	.	4F/)	.	4B-/)	.	4d/)	.
=131	=131	=131	=131	=131	=131	=131	=131
4r	.	4r	.	4r	.	(2g/	.
(4E-\	.	(4Gn'/	.	(4B-/	.	.	.
4D-\)	.	4G'/)	.	4Bn/)	.	4f/)	.
=132	=132	=132	=132	=132	=132	=132	=132
4C/	.	4G/	.	4B-/	.	4en/	.
4r	.	4r	.	4r	.	4r	.
4r	.	4r	.	4r	.	4r	.
=133	=133	=133	=133	=133	=133	=133	=133
!	!	!	!	!	!	! (16AP/LL	!
!	!	!	!	!	!	! 16fP/JJ	!
(2AA/	f	2.f\	f	(2cc\	f	&(2ee-p\)	f
4BB-/)	.	.	.	4b-\)	.	4ddn\&)	.
=134	=134	=134	=134	=134	=134	=134	=134
(2E-\	.	(4g\	.	2.g/	.	(4ccT\	.
!	!	!	!	!	!	! 16bP/LL	!
!	!	!	!	!	!	! 16ccP/JJ	!
.	.	4e-\	.	.	.	4ddp\	.
4En\)	.	4c\)	.	.	.	4b-\)	.
=135	=135	=135	=135	=135	=135	=135	=135
[2.F\	.	4c\	.	(4f/	.	(4a/	.
.	.	4r	.	4g/	.	4b-\	.
.	.	4r	.	4g#/)	.	4bn\)	.
=136	=136	=136	=136	=136	=136	=136	=136
(4F\]	.	2.r	.	4a/	.	4cc\	.
4E-\	.	.	.	4r	.	4r	.
4C/)	.	.	.	4r	.	4r	.
=137	=137	=137	=137	=137	=137	=137	=137
!	!	! p dolce	!	!	!	!	!
4BB-/	p	(2B-/	.	2.r	.	(8B-/L	p
.	.	.	.	.	.	8c/	.
4r	.	.	.	.	.	8d/	.
.	.	.	.	.	.	8e-/	.
4r	.	4A/)	.	.	.	8en/	.
.	.	.	.	.	.	8f/J)	.
=138	=138	=138	=138	=138	=138	=138	=138
2.r	.	(2e-\	.	2.r	.	(8f#/L	.
.	.	.	.	.	.	8g/	.
.	.	.	.	.	.	8a-/	.
.	.	.	.	.	.	8an/	.
.	.	4d\)	.	.	.	8cc/	.
.	.	.	.	.	.	8b-/J)	.
=139	=139	=139	=139	=139	=139	=139	=139
2.r	.	(2g\	.	2.r	.	(8b-\L	.
.	.	.	.	.	.	8ee-\)	.
.	.	.	.	.	.	(8ee-\	.
.	.	.	.	.	.	8dd\)	.
.	.	4f\)	.	.	.	(8dd\	.
.	.	.	.	.	.	8cc\J)	.
=140	=140	=140	=140	=140	=140	=140	=140
2.r	.	4en\	.	(8gn\L	p	4cc\	.
.	.	.	.	8cc\)	.	.	.
.	.	4e\	.	(8cc\	.	4cc\	.
.	.	.	.	8b-\)	.	.	.
.	.	4e\	.	(8b-\	.	4cc\	.
.	.	.	.	8a\J)	.	.	.
=141	=141	=141	=141	=141	=141	=141	=141
2.r	.	(2e-\	.	(2a/	.	(8cc\L	.
.	.	.	.	.	.	8gg\)	.
.	.	.	.	.	.	(8gg\	.
.	.	.	.	.	.	8ff\)	.
.	.	4dn\)	.	4b-\)	.	(8ff\	.
.	.	.	.	.	.	8een\J)	.
=142	=142	=142	=142	=142	=142	=142	=142
2.r	.	2.c\	.	4b-/ 4g/	.	(8een\L	.
.	.	.	.	.	.	8ddd\)	.
.	.	.	.	(4een\	.	(8ddd\	.
.	.	.	.	.	.	8ccc\)	.
.	.	.	.	4gg\)	.	(8ccc\	.
.	.	.	.	.	.	8bb-\J)	.
=143	=143	=143	=143	=143	=143	=143	=143
! p dolce	!	!	!	!	!	!	!
(2F\	.	(8F/L	.	(4gg\	.	(2aa\	.
.	.	8G/	.	.	.	.	.
.	.	8A/	.	4ff\)	.	.	.
.	.	8B-/	.	.	.	.	.
4En\)	.	8Bn/	.	4r	.	4gg\)	.
.	.	8c/J)	.	.	.	.	.
=144	=144	=144	=144	=144	=144	=144	=144
(2B-\	.	(8c#\L	.	2.r	.	(4ff\	.
.	.	8d\	.	.	.	.	.
.	.	8e-\	.	.	.	4dd\	.
.	.	8en\	.	.	.	.	.
4A\)	.	8g\	.	.	.	4cc\)	.
.	.	8f\J)	.	.	.	.	.
=145	=145	=145	=145	=145	=145	=145	=145
(2d\	.	2.f\	.	2.r	.	(8cc/L	.
.	.	.	.	.	.	8b-/)	.
.	.	.	.	.	.	(8b-/	.
.	.	.	.	.	.	8a/)	.
4c\)	.	.	.	.	.	(8a/	.
.	.	.	.	.	.	8g/J)	.
=146	=146	=146	=146	=146	=146	=146	=146
2.B-\	.	2.en\	.	2.r	.	(8g/L	.
.	.	.	.	.	.	8dd/)	.
.	.	.	.	.	.	(8dd/	.
.	.	.	.	.	.	8cc/)	.
.	.	.	.	.	.	(8cc/	.
.	.	.	.	.	.	8g/J)	.
=147	=147	=147	=147	=147	=147	=147	=147
2.F\	.	2.e-\	.	2.r	.	(8a\L	.
.	.	.	.	.	.	8gg\)	.
.	.	.	.	.	.	(8gg\	.
.	.	.	.	.	.	8ff\)	.
.	.	.	.	.	.	(8ff\	.
.	.	.	.	.	.	8cc\J)	.
=148	=148	=148	=148	=148	=148	=148	=148
!	!	!	!	! p dolce	!	!	!
(8BB-\L	.	(2d\	.	(2b-\	.	4dd\	.
8C\	.	.	.	.	.	.	.
8D\	.	.	.	.	.	4r	.
8E-\	.	.	.	.	.	.	.
8En\	.	4c\)	.	4a/)	.	4r	.
8F\J)	.	.	.	.	.	.	.
=149	=149	=149	=149	=149	=149	=149	=149
(8F#\L	<	(2cc\	<	(2ee-\	<	2.r	.
8G\	.	.	.	.	.	.	.
8A-\	.	.	.	.	.	.	.
8An\	.	.	.	.	.	.	.
8B-\	.	4b-\)	]	4dd\)	]	.	.
8G\J)	]	.	.	.	.	.	.
=150	=150	=150	=150	=150	=150	=150	=150
(8E-\L	>	(8g\L	>	(2gg\	>	2.r	.
8Fn\	.	8a\	.	.	.	.	.
8G\	.	8b-\	.	.	.	.	.
8A\	.	8cc\	.	.	.	.	.
8B-\	.	8dd\	.	4ff\)	]	.	.
8Bn\J)	]	8cc\J)	]	.	.	.	.
=151	=151	=151	=151	=151	=151	=151	=151
4c\	.	4b-\	.	4een\	.	2.r	.
4r	.	4r	.	4r	.	.	.
4r	.	4r	.	4r	.	.	.
=152	=152	=152	=152	=152	=152	=152	=152
(2A\	f>	2.f\	f>]	(2cc\	f>	(2ee-\	f>
4B-\)	]	.	.	4b-\)	]	4dd\)	]
=153	=153	=153	=153	=153	=153	=153	=153
(4E-\	p	(4e-\	p	(4g/	p	(4cc\	p
4D\	.	4f\	.	4f/	.	4ddt\	.
!	!	!	!	!	!	! 16ccP/LL	!
!	!	!	!	!	!	! 16ddP/JJ	!
4C/)	.	4g\)	.	4e-/)	.	4ee-p\)	.
=154	=154	=154	=154	=154	=154	=154	=154
2.F\	.	(4f\	.	(2d/	.	(2b-\	.
.	.	4d\	.	.	.	.	.
.	.	4A/)	.	8f/L	.	8dd\L	.
.	.	.	.	8e-/J)	.	8cc\J)	.
=155	=155	=155	=155	=155	=155	=155	=155
4BB-/	.	(8B-\L	.	(8d/L	.	(8b-\L	.
.	.	8g\)	.	8b-/J)	.	8ee-\)	.
!	!	!	!	! cresc.	!	!	!
4r	.	(8g\	.	4b-\	.	(8ee-\	.
!	!	! cresc.	!	!	!	! cresc.	!
.	.	8f\)	.	.	.	8dd\)	.
4r	.	(8f\	.	4b-\	.	(8dd\	.
.	.	8e-\J)	.	.	.	8gg\J)	.
=156	=156	=156	=156	=156	=156	=156	=156
2.r	.	(8e-\L	.	4.b-\	.	(8gg\L	.
.	.	8d\)	.	.	.	8ff\)	.
.	.	(8d\	.	.	.	(8ff\	.
.	.	8dd\)	.	8ff'\L	.	8bb-\)	.
.	.	(8dd\	.	(8ff\	.	(8bb-\	.
.	.	8cc\J)	.	8ee-\J)	.	8aa\J)	.
=157	=157	=157	=157	=157	=157	=157	=157
2.r	.	(8cc\L	.	(8ee-\L	.	(8aa\L	.
.	.	8b-\)	.	8dd\)	.	8gg\)	.
.	.	(8b-\	.	(8dd\	.	(8gg\	.
.	.	8a\)	.	8cc\)	.	8ff\)	.
.	.	(8a\	.	(8cc\	.	(8ff\	.
.	.	8g\J)	.	8b-\J)	.	8een\J)	.
=158	=158	=158	=158	=158	=158	=158	=158
8r	.	2.g\	f>	2.b-\	>f	2.een\	f>
8d-\L	f	.	.	.	.	.	.
(8d-\	>	.	.	.	.	.	.
8c\)	.	.	.	.	.	.	.
(8c\	.	.	.	.	.	.	.
8B-\J)	.	.	.	.	.	.	.
=159	=159	=159	=159	=159	=159	=159	=159
(8B-\L	.	(2g-\	.	(2cc\	.	2.ee-\	]
8A\)	.	.	.	.	.	.	.
(8B-\	.	.	.	.	.	.	.
8A\)	.	.	.	.	.	.	.
(8c\	.	4f\)	]	4a/)	]	.	.
8F\J)	]	.	.	.	.	.	.
=160	=160	=160	=160	=160	=160	=160	=160
4B-\	p	(4f\	p	(4b-\	p	(8ee-\L	p
.	.	.	.	.	.	8dd\)	.
(4E-\	.	4gn\	.	4g/)	.	(8dd\	.
.	.	.	.	.	.	8cc\)	.
4En\)	.	4B-/)	.	4g/	.	(8gg\	.
.	.	.	.	.	.	8cc\J)	.
=161	=161	=161	=161	=161	=161	=161	=161
2.F\	.	(2B-/	.	(2d/	.	2b-\)	.
.	.	4A/)	.	4e-/)	.	&(8.cc\L)	.
.	.	.	.	.	.	16b-\Jk&)	.
=162	=162	=162	=162	=162	=162	=162	=162
4G\	.	(4B-/	.	(4d/	.	(4b-\	.
4G\	.	4g\)	.	4b-\)	.	4ee-\)	.
4G\	.	4g'\	.	4b-'\	.	4ee-'\	.
=163	=163	=163	=163	=163	=163	=163	=163
!	!	!	!	!	!	! (16ddP/LL	!
!	!	!	!	!	!	! 16ffP/JJ	!
4A\	.	4f\	.	4cc\	.	4ee-p\)	.
4r	.	4r	.	(4f'/	pp	(4e-'/	pp
4r	.	4r	.	4f'/)	.	4e-'/)	.
=164	=164	=164	=164	=164	=164	=164	=164
4r	.	2.r	.	(4f'/	.	(4e-'/	.
! dolce	!	!	!	!	!	!	!
(4FF/	pp	.	.	4f'/	.	4e-'/	.
4GG/)	.	.	.	4f'/)	.	4e-'/)	.
=165	=165	=165	=165	=165	=165	=165	=165
4AA-'/	.	2.r	.	4f/	.	4e-/	.
2AAnz/	z	.	.	4f/	.	4e-/	.
.	.	.	.	4f/	.	4e-/	.
=166	=166	=166	=166	=166	=166	=166	=166
4BB-'/	.	2.r	.	4f/	.	4e-/	.
2BBnz/	z	.	.	4f/	.	4e-/	.
.	.	.	.	4f/	.	4e-/	.
=167	=167	=167	=167	=167	=167	=167	=167
(8C/L	.	2.r	.	4f/	.	4e-/	.
8D/	.	.	.	.	.	.	.
8E-/)	.	.	.	4f/	.	4e-/	.
8D'/	.	.	.	.	.	.	.
8C'/	.	.	.	4f/	.	4e-/	.
8BB-'/J	.	.	.	.	.	.	.
=168	=168	=168	=168	=168	=168	=168	=168
(8AA/L	.	2.r	.	4f/	.	4e-/	.
8BB-/	.	.	.	.	.	.	.
8C/)	.	.	.	4f/	.	4e-/	.
8BB-'/	.	.	.	.	.	.	.
8AA'/	.	.	.	4f/	.	4e-/	.
8GG'/J	.	.	.	.	.	.	.
=169	=169	=169	=169	=169	=169	=169	=169
4FF/	.	4r	.	4f/	.	4e-/	.
!	!	!	!	!	!	! dolce	!
4r	.	(4e-'\	pp	4f/	.	(4ff\	.
4r	.	4e-'\)	.	4f/	.	4een\)	.
=170	=170	=170	=170	=170	=170	=170	=170
2.r	.	(4e-'\	.	4f/	.	4ee-'\	.
.	.	4e-'\	.	4f/	.	2ddz\	z
.	.	4e-'\)	.	4f/	.	.	.
=171	=171	=171	=171	=171	=171	=171	=171
2.r	.	4e-\	.	4f/	.	4cc'\	.
.	.	4e-\	.	4f/	.	2bnz\	z
.	.	4e-\	.	4f/	.	.	.
=172	=172	=172	=172	=172	=172	=172	=172
2.r	.	4e-\	.	4f/	.	(8cc\L	.
.	.	.	.	.	.	8dd\	.
.	.	4e-\	.	4f/	.	8ee-\)	.
.	.	.	.	.	.	8dd'\	.
.	.	4e-\	.	4f/	.	8cc'\	.
.	.	.	.	.	.	8b-'\J	.
=173	=173	=173	=173	=173	=173	=173	=173
(8c\L	.	4e-\	.	4f/	.	2.a/	.
8d\	.	.	.	.	.	.	.
8e-\)	.	4e-\	.	4f/	.	.	.
8d'\	.	.	.	.	.	.	.
8c'\	.	4e-\	.	4f/	.	.	.
8B-'\J	.	.	.	.	.	.	.
=174	=174	=174	=174	=174	=174	=174	=174
4A\	.	4f\	.	(8cc\L	.	4e-/	.
.	.	.	.	8dd\	.	.	.
4r	.	4f\	.	8ee-\)	.	4e-/	.
.	.	.	.	8dd'\	.	.	.
4r	.	4f\	.	8cc'\	.	4e-/	.
.	.	.	.	8b-'\J	.	.	.
=175	=175	=175	=175	=175	=175	=175	=175
4e-\	.	4f\	.	(8a\L	.	(4gg-\	.
.	.	.	.	8b-\	.	.	.
4e-\	.	4f\	.	8cc\)	.	4ff\)	.
.	.	.	.	8b-'\	.	.	.
4e-\	.	4f\	.	8a'\	.	4r	.
.	.	.	.	8b-'\J	.	.	.
=176	=176	=176	=176	=176	=176	=176	=176
4e-\	.	4f\	.	(8a\L	.	(4gg-\	.
.	.	.	.	8b-\	.	.	.
4e-\	.	4f\	.	8cc\)	.	4ff\)	.
.	.	.	.	8b-'\	.	.	.
4e-\	.	4f\	.	8a'\	.	4r	.
.	.	.	.	8b-'\J	.	.	.
=177	=177	=177	=177	=177	=177	=177	=177
(8d\L	.	4f\	.	(8bn\L	.	(4aa-\	.
8e-\	.	.	.	8cc\	.	.	.
8f\)	.	4f\	.	8dd\)	.	4gg\)	.
8e-'\	.	.	.	8cc'\	.	.	.
8d'\	.	4f\	.	8b'\	.	4r	.
8e-'\J	.	.	.	8cc\J	.	.	.
=178	=178	=178	=178	=178	=178	=178	=178
(8d\L	.	4f\	.	(8bn\L	.	(4aa-\	.
8e-\	.	.	.	8cc\	.	.	.
8f\)	.	4f\	.	8dd\)	.	4gg\)	.
8e-'\	.	.	.	8cc'\	.	.	.
8d'\	.	4f\	.	8b'\	.	4r	.
8e-'\J	.	.	.	8cc'\J	.	.	.
=179	=179	=179	=179	=179	=179	=179	=179
(4d-\	.	(8g\L	.	4b-\	.	(8een\L	.
.	.	8a-\	.	.	.	8ff\	.
4c\)	.	8b-\)	.	4b-\	.	8gg\)	.
.	.	8a-'\	.	.	.	8ff'\	.
4r	.	8g'\	.	4b-\	.	8ee'\	.
.	.	8a-'\J	.	.	.	8ff'\J	.
=180	=180	=180	=180	=180	=180	=180	=180
(4d-\	.	(8g\L	.	4b-\	.	(8een\L	.
.	.	8a-\	.	.	.	8ff\	.
4c\)	.	8b-\)	.	4b-\	.	8gg\)	.
.	.	8a-'\	.	.	.	8ff'\	.
4r	.	8g'\	.	4b-\	.	8ee'\	.
.	.	8a-'\J	.	.	.	8ff'\J	.
=181	=181	=181	=181	=181	=181	=181	=181
[2.c\	<	[2.g\	<	2.b-\	<	(8een\L	<
.	.	.	.	.	.	8ff\)	.
.	.	.	.	.	.	(8aan\	.
.	.	.	.	.	.	8gg\)	.
.	.	.	.	.	.	(8bb-\	.
.	.	.	.	.	.	8aa\J)	.
=182	=182	=182	=182	=182	=182	=182	=182
2.c\]	]	2.g\]	]	2.en/	]	(8ccc\L	.
.	.	.	.	.	.	8bb-\)	.
.	.	.	.	.	.	8gg'\	]
.	.	.	.	.	.	8een'\	.
.	.	.	.	.	.	8cc'\	.
.	.	.	.	.	.	8b-'\J	.
=183	=183	=183	=183	=183	=183	=183	=183
[2.F\	f	2.an\	f	2.e-/	f	(8a\L	f
.	.	.	.	.	.	8b-\)	.
.	.	.	.	.	.	(8dd\	.
.	.	.	.	.	.	8cc\)	.
.	.	.	.	.	.	(8ee-\	.
.	.	.	.	.	.	8dd\J)	.
=184	=184	=184	=184	=184	=184	=184	=184
2.F\]	.	2cc\	.	2.A/	.	(8ff\L	.
.	.	.	.	.	.	8ee-\)	.
.	.	.	.	.	.	8cc'\	.
.	.	.	.	.	.	8a'\	.
.	.	4c\	.	.	.	8f'\	.
.	.	.	.	.	.	8e-'\J	.
=185	=185	=185	=185	=185	=185	=185	=185
2.BB-/	p	2.d\	p	(4B-/	p	(8d/L	p
.	.	.	.	.	.	8f/)	.
.	.	.	.	4d/	.	(8b-/	.
.	.	.	.	.	.	8f/)	.
.	.	.	.	4f/)	.	(8dd/	.
.	.	.	.	.	.	8b-/J)	.
=186	=186	=186	=186	=186	=186	=186	=186
2.E-\	<]	2e-\	<	2B-/	<	(8a\L	<
.	.	.	.	.	.	8g\)	.
.	.	.	.	.	.	(8ff#\	.
.	.	.	.	.	.	8gg\	.
.	.	4G/	]	(8g/L	.	8ee-\	.
.	.	.	.	8e-/J)	]	8cc\J)	]
=187	=187	=187	=187	=187	=187	=187	=187
2.F\	f	2.B-/	f	2.d/	f	(4b-\	f
.	.	.	.	.	.	4dd\	.
.	.	.	.	.	.	4ffn\)	.
=188	=188	=188	=188	=188	=188	=188	=188
2.FF/	.	(4A/	.	2.e-/	.	(4f/	.
.	.	4B-/	.	.	.	4g/	.
.	.	4c\)	.	.	.	4a/)	.
=189	=189	=189	=189	=189	=189	=189	=189
4r	.	(2A/	p	(2e-/	p	(2cc\	p
4BB-/	p	.	.	.	.	.	.
4BB-/	.	4B-/)	.	4d/)	.	4b-\)	.
=190	=190	=190	=190	=190	=190	=190	=190
4r	.	(2c\	.	(2a/	.	(2ee-\	.
4BB-/	.	.	.	.	.	.	.
4BB-/	.	4B-/)	.	4b-\)	.	4dd\)	.
=191	=191	=191	=191	=191	=191	=191	=191
4r	.	(2a\	.	(2ee-\	.	(2gg\	.
4BB-/	.	.	.	.	.	.	.
4BB-/	.	4b-\)	.	4dd\)	.	4ff\)	.
=192	=192	=192	=192	=192	=192	=192	=192
2.FFz/	z	2.ccz\	z	(2az/	z	(2eee-z\	z
.	.	.	.	4ee-\)	.	16ddd\LL	.
.	.	.	.	.	.	16ccc\	.
.	.	.	.	.	.	16bb-\	.
.	.	.	.	.	.	16aa\JJ)	.
=193	=193	=193	=193	=193	=193	=193	=193
4BB-/	.	4b-\	.	4dd\	.	4bb-\	.
4r	.	4r	.	4r	.	4r	.
4r	.	4r	.	4r	.	8f/L	p
.	.	.	.	.	.	8b-/J	.
=194	=194	=194	=194	=194	=194	=194	=194
2.F\	p	(2.c\	p	(2.a/	p	(8a\L	.
.	.	.	.	.	.	8cc\	.
.	.	.	.	.	.	8ee-\)	.
.	.	.	.	.	.	8gg'\	.
.	.	.	.	.	.	8ff'\	.
.	.	.	.	.	.	8a'\J	.
=195	=195	=195	=195	=195	=195	=195	=195
4BB-/	.	4d\)	.	4b-\)	.	4b-\	.
4r	.	4r	.	4r	.	4r	.
4r	.	(8F/L	.	4r	.	4r	.
.	.	8B-/J)	.	.	.	.	.
=196	=196	=196	=196	=196	=196	=196	=196
2.FF/	.	(8A\L	.	(2.c/	.	(2.e-/	.
.	.	8c\	.	.	.	.	.
.	.	8e-\)	.	.	.	.	.
.	.	8g'\	.	.	.	.	.
.	.	8f'\	.	.	.	.	.
.	.	8A'\J	.	.	.	.	.
=197	=197	=197	=197	=197	=197	=197	=197
4BB-/	.	4B-/	.	4d/)	.	4d/)	.
4r	.	4r	.	4r	.	4r	.
4r	.	4r	.	4r	.	4r	.
==|!	==|!	==|!	==|!	==|!	==|!	==|!	==|!
*-	*-	*-	*-	*-	*-	*-	*-
!!!RWG: Appoggiaturas of spine 'Violino I' need manual editing in measures: 5, 6, 45, 88, 133, 134, 153, 163
!!!RWG: Key is interpreted using the Humdrum key tool.
!!!GTL: 6 Quators ("Tost I + II")
!!!AFT: stage2
!!!END: 1994/11/09
!!!KEY: 3195760256
!!!EMD: Converted from MuseData to Humdrum Dec 16, 2000, by Andreas Kornstaedt using muse2kern.
!!!EMD: Manual editing by Craig Sapp, Nov 2001
